X: 7805
T: Come Up Alang
R: jig
M: 6/8
K: Gdorian
BGG GFD|GBd gde|(4ffff fed|cAd AGF|
(4BAGA GFD|GBd gde|(4ffff fdc|1 AGF G2 A:|2 AGF G3||
|:GBd g2 a|(4baga gfd|FAc f2 g|(4agfg fga|
bag ag^f|gfd cAF|(4BAGA GFD-|1 D G^F G3:|2 D G^F G2 A||

